lib/svgs/cog.svg

<svg xmlns="http://www.w3.org/2000/svg" viewBox="0 0 20 20">
    <path fill="#000" fill-rule="evenodd" d="M15.8250654,10.714 C15.8560654,10.46 15.8720654,10.224 15.8720654,10 C15.8720654,9.776 15.8560654,9.541 15.8250654,9.286 L17.0340654,7.635 C17.1740654,7.443 17.1880654,7.187 17.0690654,6.981 L15.9370654,5.019 C15.8180654,4.813 15.5910654,4.698 15.3520654,4.722 L13.3230654,4.943 C12.9400654,4.66 12.5240654,4.42 12.0810654,4.229 L11.2560654,2.358 C11.1610654,2.141 10.9450654,2 10.7070654,2 L8.44206541,2 C8.20506541,2 7.98906541,2.141 7.89306541,2.358 L7.06806541,4.229 C6.62506541,4.42 6.21006541,4.66 5.82806541,4.943 L3.79806541,4.722 C3.56206541,4.703 3.33206541,4.814 3.21306541,5.019 L2.08006541,6.981 C1.96106541,7.187 1.97606541,7.443 2.11606541,7.635 L3.32506541,9.286 C3.29306541,9.541 3.27806541,9.776 3.27806541,10 C3.27806541,10.224 3.29306541,10.46 3.32506541,10.714 L2.11606541,12.365 C1.97606541,12.557 1.96106541,12.814 2.08006541,13.02 L3.21306541,14.981 C3.33206541,15.187 3.55806541,15.299 3.79706541,15.277 L5.82806541,15.057 C6.21006541,15.341 6.62606541,15.58 7.06806541,15.772 L7.89306541,17.643 C7.98906541,17.86 8.20506541,18 8.44206541,18 L10.7080654,18 C10.9460654,18 11.1610654,17.86 11.2570654,17.643 L12.0810654,15.772 C12.5230654,15.58 12.9390654,15.341 13.3230654,15.057 L15.3530654,15.277 C15.5900654,15.303 15.8180654,15.188 15.9370654,14.981 L17.0690654,13.02 C17.1880654,12.814 17.1740654,12.557 17.0340654,12.365 L15.8250654,10.714 L15.8250654,10.714 L15.8250654,10.714 L15.8250654,10.714 Z M9.57506541,12.4 C8.25006541,12.4 7.17506541,11.325 7.17506541,10 C7.17506541,8.675 8.25006541,7.6 9.57506541,7.6 C10.9010654,7.6 11.9750654,8.675 11.9750654,10 C11.9750654,11.325 10.9010654,12.4 9.57506541,12.4 L9.57506541,12.4 L9.57506541,12.4 L9.57506541,12.4 Z"/>
</svg>

<svg xmlns="http://www.w3.org/2000/svg" viewBox="0 0 20 20">
    <path fill="#000" fill-rule="evenodd" d="M15.825 10.714a5.892 5.892 0 0 0 0-1.428l1.21-1.651a.6.6 0 0 0 .034-.654l-1.132-1.962a.602.602 0 0 0-.585-.297l-2.029.221a6.259 6.259 0 0 0-1.242-.714l-.825-1.871A.6.6 0 0 0 10.707 2H8.442a.602.602 0 0 0-.549.358l-.825 1.871a6.215 6.215 0 0 0-1.24.714l-2.03-.221a.615.615 0 0 0-.585.297L2.08 6.981a.6.6 0 0 0 .036.654l1.21 1.651a5.708 5.708 0 0 0 0 1.428l-1.21 1.651a.602.602 0 0 0-.036.655l1.133 1.961a.603.603 0 0 0 .584.296l2.031-.22c.382.284.798.523 1.24.715l.825 1.871a.6.6 0 0 0 .55.357h2.265a.6.6 0 0 0 .55-.357l.823-1.871a6.32 6.32 0 0 0 1.242-.715l2.03.22a.596.596 0 0 0 .584-.296l1.132-1.961a.602.602 0 0 0-.035-.655l-1.209-1.651M9.575 12.4a2.4 2.4 0 1 1 .001-4.801 2.4 2.4 0 0 1 0 4.801"/>
</svg>
